src/images/crypto-icon-svg/knc.svg

<svg xmlns="http://www.w3.org/2000/svg" width="32" height="32" viewBox="0 0 32 32">
  <g fill="none">
    <circle cx="16" cy="16" r="16" fill="#188C92"/>
    <path fill="#FFF" d="M21.8363303,21.0309105 C21.7745538,21.1201116 21.7385445,21.2272743 21.7385445,21.3425358 C21.7385445,21.4312924 21.7598969,21.5152467 21.7979252,21.5898951 L15.8715215,26.2279408 C15.7972418,26.1691901 15.7076573,26.1277241 15.6093968,26.1099261 L15.4283139,14.6935213 C15.4930779,14.6798612 15.5538192,14.6558518 15.608574,14.6233841 L21.8363303,21.0309105 Z M22.0021232,20.8722958 L15.7791042,14.4696435 C15.8469182,14.3777826 15.8867925,14.2654613 15.8867925,14.1441718 C15.8867286,14.0928665 15.8795398,14.0431693 15.8661277,13.9959482 L22.1916165,10.9164765 C22.2718789,11.014013 22.3850305,11.0853109 22.5149372,11.114834 L22.2002191,20.7925212 C22.1284152,20.8072585 22.0614965,20.8347038 22.0021232,20.8722958 Z M15.2628779,26.1490721 L11.9116399,21.6461576 C12.0082933,21.5458188 12.0673854,21.4114565 12.0673854,21.2638037 C12.0670218,20.9714324 11.8352765,20.7312797 11.5389952,20.7040102 L10.4930853,11.2366745 C10.7466548,11.1753644 10.9344115,10.9543997 10.9344115,10.6912065 C10.934244,10.5565646 10.8850061,10.432997 10.8029926,10.3361949 L15.007572,5.82275902 C15.0620216,5.85353678 15.12211,5.87606063 15.1859838,5.88854602 L15.1859838,13.5930491 C14.9194149,13.6451551 14.7187781,13.8721008 14.7187781,14.1441718 C14.7187781,14.419213 14.9238197,14.6481384 15.194738,14.6969384 L15.3758191,26.1132272 C15.3365469,26.1215105 15.2987538,26.1335993 15.2628779,26.1490721 Z M15.4195867,13.5931735 L15.4195867,5.88854602 C15.5235868,5.86821718 15.6175513,5.82127567 15.6934807,5.75542452 L22.1199215,10.3302914 C22.0850567,10.4023634 22.0655885,10.4827348 22.0655885,10.5674847 C22.0655885,10.6188127 22.0727294,10.6685347 22.0861068,10.7157796 L15.7605065,13.7953055 C15.6766074,13.6934103 15.5568473,13.6201396 15.4195867,13.5931735 Z M15.3027853,5 C15.4963082,5 15.6531896,5.15106956 15.6531896,5.33742331 C15.6531896,5.52377706 15.4963082,5.67484663 15.3027853,5.67484663 C15.1092623,5.67484663 14.952381,5.52377706 14.952381,5.33742331 C14.952381,5.15106956 15.1092623,5 15.3027853,5 Z M10.3504043,10.3537832 C10.5439273,10.3537832 10.7008086,10.5048528 10.7008086,10.6912065 C10.7008086,10.8775603 10.5439273,11.0286299 10.3504043,11.0286299 C10.1568814,11.0286299 10,10.8775603 10,10.6912065 C10,10.5048528 10.1568814,10.3537832 10.3504043,10.3537832 Z M11.4833783,20.9263804 C11.6769012,20.9263804 11.8337826,21.0774499 11.8337826,21.2638037 C11.8337826,21.4501574 11.6769012,21.601227 11.4833783,21.601227 C11.2898553,21.601227 11.1329739,21.4501574 11.1329739,21.2638037 C11.1329739,21.0774499 11.2898553,20.9263804 11.4833783,20.9263804 Z M22.6495957,10.2300613 C22.8431186,10.2300613 23,10.3811309 23,10.5674847 C23,10.7538384 22.8431186,10.904908 22.6495957,10.904908 C22.4560727,10.904908 22.2991914,10.7538384 22.2991914,10.5674847 C22.2991914,10.3811309 22.4560727,10.2300613 22.6495957,10.2300613 Z M15.3027853,13.8067485 C15.4963082,13.8067485 15.6531896,13.957818 15.6531896,14.1441718 C15.6531896,14.3305255 15.4963082,14.4815951 15.3027853,14.4815951 C15.1092623,14.4815951 14.952381,14.3305255 14.952381,14.1441718 C14.952381,13.957818 15.1092623,13.8067485 15.3027853,13.8067485 Z M15.5013477,26.3251534 C15.6948707,26.3251534 15.851752,26.4762229 15.851752,26.6625767 C15.851752,26.8489304 15.6948707,27 15.5013477,27 C15.3078248,27 15.1509434,26.8489304 15.1509434,26.6625767 C15.1509434,26.4762229 15.3078248,26.3251534 15.5013477,26.3251534 Z M22.3225517,21.0051125 C22.5160746,21.0051125 22.672956,21.156182 22.672956,21.3425358 C22.672956,21.5288895 22.5160746,21.6799591 22.3225517,21.6799591 C22.1290287,21.6799591 21.9721473,21.5288895 21.9721473,21.3425358 C21.9721473,21.156182 22.1290287,21.0051125 22.3225517,21.0051125 Z"/>
  </g>
</svg>

<svg xmlns="http://www.w3.org/2000/svg" width="32" height="32"><g fill="none"><circle cx="16" cy="16" r="16" fill="#188C92"/><path fill="#FFF" d="M21.836 21.03a.545.545 0 0 0-.038.56l-5.926 4.638a.592.592 0 0 0-.263-.118l-.18-11.416a.593.593 0 0 0 .18-.07l6.227 6.407zm.166-.158L15.78 14.47a.546.546 0 0 0 .087-.474l6.326-3.08c.08.098.193.17.323.199l-.315 9.678a.593.593 0 0 0-.198.08zm-6.74 5.277l-3.35-4.503a.55.55 0 0 0 .155-.382.572.572 0 0 0-.528-.56l-1.046-9.467a.567.567 0 0 0 .441-.546.548.548 0 0 0-.131-.355l4.205-4.513c.054.03.114.053.178.066v7.704a.568.568 0 0 0-.467.551c0 .275.205.504.476.553l.18 11.416a.595.595 0 0 0-.112.036zm.158-12.556V5.89a.59.59 0 0 0 .273-.134l6.427 4.575a.543.543 0 0 0-.034.386l-6.325 3.08a.588.588 0 0 0-.341-.203zM15.303 5c.193 0 .35.151.35.337a.344.344 0 0 1-.35.338.344.344 0 0 1-.35-.338c0-.186.156-.337.35-.337zm-4.953 5.354c.194 0 .35.15.35.337a.344.344 0 0 1-.35.338.344.344 0 0 1-.35-.338c0-.186.157-.337.35-.337zm1.133 10.572c.194 0 .35.151.35.338a.344.344 0 0 1-.35.337.344.344 0 0 1-.35-.337c0-.187.157-.338.35-.338zM22.65 10.23c.193 0 .35.151.35.337a.344.344 0 0 1-.35.338.344.344 0 0 1-.35-.338c0-.186.156-.337.35-.337zm-7.347 3.577c.193 0 .35.15.35.337a.344.344 0 0 1-.35.338.344.344 0 0 1-.35-.338c0-.186.156-.337.35-.337zm.198 12.518c.194 0 .35.151.35.338a.344.344 0 0 1-.35.337.344.344 0 0 1-.35-.337c0-.187.157-.338.35-.338zm6.822-5.32c.193 0 .35.151.35.338a.344.344 0 0 1-.35.337.344.344 0 0 1-.35-.337c0-.187.156-.338.35-.338z"/></g></svg>
